X:130
T:Uncle's Jig
S:Trad
O:England
F:http://banjolin.co.uk/tunes/abcs/uncles.abc
M:6/8
L:1/8
R:Jig
K:G
|:ddd dBc | ddd def | g2g f2e |  d3 d2B | c2e edc |
|B2d G2B | A2B cBA |1 GAG FED :|2 G3 B3 ||
K:D
|:A2d c2e | d2f a2f | e2f gfe |d2f A3  |
|A2d c2e | d2f a2f | e2f gfe |1  d3 B3 :|2 d3 B2=c||

